X:1
T: Mrs Garden of Troup's Favourite
C:R. Mackintosh
R:Strathspey
Q: 128
K:Bb
M:4/4
L:1/16
|:B2|FB3 d3B c3A B3F|G3B F3B GFED C2FE|DB,3 d3B c3A B3F|GE3 F3E D2B,2 B,2B2|
FB3 d3B c3A B3F|G3B F3B GFED C2FE|DB,3 d3B c3A B3F|GE3 F3E D2B,2 B,2fe|
df3 Bg3 ce3 Af3|Bd3 G2cB A2F2 F2B2 GB3 Ec3 FA3 DB3|EG3 F3E D2B,2 B,2fe|
df3 Bg3 ce3 Af3|Bd3 G2cB A2F2 F2B2|GB3 eg3 f3d BF3|EG3 F2e2 d2B2 B2:|
